src/icons/io.github.kolumni.Bazaar.Popular.svg

<svg width="128" height="128" viewBox="0 0 128 128" fill="none" xmlns="http://www.w3.org/2000/svg">
<mask id="mask0_163_646" style="mask-type:luminance" maskUnits="userSpaceOnUse" x="16" y="0" width="96" height="95">
<path d="M63.9993 0C37.4894 0 16 20.2027 16 45.1253C16.0115 55.0542 21.919 66.4177 32.3169 76.8154L50.3947 94.5571H78.3561L95.7462 76.7157C105.254 67.2071 111.98 55.0057 112 45.1253C112 20.2027 90.5092 0 63.9993 0Z" fill="white"/>
</mask>
<g mask="url(#mask0_163_646)">
<path d="M63.9993 0C37.4893 0 16 20.2027 16 45.1253C16.0115 55.0542 21.0148 64.5521 25.9437 72.5763L42.5071 103.721H85.4915L102.119 72.4564C106.984 64.5359 111.977 55.0057 111.999 45.1253C111.999 20.2027 90.5092 0 63.9993 0Z" fill="url(#paint0_radial_163_646)"/>
<path d="M62.5664 0C62.5664 0 36.3 16.3421 36.3 41.7429C36.3 61.3704 59.4744 103.721 59.4744 103.721H66.8648C66.8648 103.721 68.7748 61.3704 68.7748 41.7429C68.7748 16.3421 62.5664 0 62.5664 0Z" fill="url(#paint1_radial_163_646)"/>
<path d="M62.5421 0.142706C50.783 0.340719 39.1471 4.56768 30.3038 11.8551C21.4576 19.1411 15.4742 29.4297 13.7204 40.3622C11.9437 51.4414 14.5328 63.0918 20.8773 72.5762L48.0979 103.721H57.3138L38.2115 81.1851C32.0504 73.9179 26.0727 66.2735 23.0294 57.4317C19.9875 48.5898 19.9259 38.8427 23.0337 30.0224C25.8766 22.0021 31.1056 14.9161 38.1012 9.6042C45.1184 4.3182 53.6004 1.0342 62.5421 0.141357V0.142706Z" fill="url(#paint2_radial_163_646)"/>
<path d="M62.7914 0.169638C73.837 -1.91421 85.6734 -0.0378028 95.3822 5.33548C105.091 10.7088 112.579 19.5291 116 29.621C118.47 36.9461 118.844 44.7535 117.085 52.2577C115.303 59.7568 111.451 66.6824 105.918 72.3378L89.8615 103.482H70.6862L89.7899 71.6333C93.8992 64.781 97.7521 57.6162 98.9986 49.8371C100.245 42.0581 98.947 33.9813 95.5971 26.772C89.618 13.9079 77.2055 3.84298 62.7928 0.170987L62.7914 0.169638Z" fill="url(#paint3_radial_163_646)"/>
</g>
<path d="M53.4942 113.899V122.803C53.4926 123.39 53.607 123.971 53.8307 124.513C54.0545 125.056 54.3832 125.548 54.798 125.963C55.2128 126.378 55.7054 126.707 56.2477 126.931C56.79 127.155 57.3711 127.269 57.9578 127.268H70.0423C72.516 127.268 73.9868 125.222 74.506 122.803V113.899H53.4942Z" fill="#E5A50A"/>
<path d="M53.4942 111.989V120.894C53.4928 121.48 53.6073 122.061 53.8311 122.604C54.0549 123.146 54.3837 123.638 54.7984 124.053C55.2132 124.468 55.7058 124.797 56.248 125.02C56.7902 125.244 57.3712 125.359 57.9578 125.357H70.0423C72.516 125.357 73.9868 123.312 74.506 120.894V111.99L53.4942 111.989Z" fill="#E5A50A"/>
<path d="M66.8655 111.989V125.357H70.0423C72.516 125.357 73.9868 123.312 74.506 120.894V111.99L66.8655 111.989Z" fill="#F3AF0B"/>
<defs>
<radialGradient id="paint0_radial_163_646" cx="0" cy="0" r="1" gradientTransform="matrix(0.228477 73.2059 -68.8401 0.190429 63.5051 34.302)" gradientUnits="userSpaceOnUse">
<stop stop-color="white"/>
<stop offset="0.519" stop-color="white"/>
<stop offset="0.734" stop-color="#CFCFCF"/>
<stop offset="1" stop-color="#DCDCDC"/>
</radialGradient>
<radialGradient id="paint1_radial_163_646" cx="0" cy="0" r="1" gradientUnits="userSpaceOnUse" gradientTransform="translate(60.7909 28.5261) scale(77.4763 77.0489)">
<stop stop-color="#ED686F"/>
<stop offset="0.865" stop-color="#A51D2D"/>
<stop offset="1" stop-color="#E01B24"/>
</radialGradient>
<radialGradient id="paint2_radial_163_646" cx="0" cy="0" r="1" gradientTransform="matrix(18.1818 84.0491 -53.6353 10.2548 39.009 18.1545)" gradientUnits="userSpaceOnUse">
<stop stop-color="#ED686F"/>
<stop offset="0.911" stop-color="#A51D2D"/>
<stop offset="1" stop-color="#E01B24"/>
</radialGradient>
<radialGradient id="paint3_radial_163_646" cx="0" cy="0" r="1" gradientTransform="matrix(-18.1818 84.0491 53.6353 10.2548 87.786 17.9161)" gradientUnits="userSpaceOnUse">
<stop stop-color="#ED686F"/>
<stop offset="0.911" stop-color="#A51D2D"/>
<stop offset="1" stop-color="#E01B24"/>
</radialGradient>
</defs>
</svg>

<svg xmlns="http://www.w3.org/2000/svg" width="128" height="128" fill="none" viewBox="0 0 128 128"><mask id="a" width="96" height="95" x="16" y="0" maskUnits="userSpaceOnUse" style="mask-type:luminance"><path fill="#fff" d="M64 0C37.49 0 16 20.203 16 45.125c.012 9.93 5.919 21.293 16.317 31.69l18.078 17.742h27.961l17.39-17.841c9.508-9.509 16.234-21.71 16.254-31.59C112 20.202 90.51 0 64 0"/></mask><g mask="url(#a)"><path fill="url(#b)" d="M64 0C37.49 0 16 20.203 16 45.125c.012 9.93 5.015 19.427 9.944 27.451l16.563 31.145h42.985l16.627-31.265c4.865-7.92 9.858-17.45 9.88-27.33 0-24.923-21.49-45.126-48-45.126"/><path fill="url(#c)" d="M62.566 0S36.3 16.342 36.3 41.743c0 19.627 23.174 61.978 23.174 61.978h7.39s1.91-42.35 1.91-61.978C68.775 16.343 62.567 0 62.567 0"/><path fill="url(#d)" d="M62.542.143C50.783.34 39.147 4.568 30.304 11.855c-8.846 7.286-14.83 17.575-16.584 28.507-1.776 11.08.813 22.73 7.157 32.214l27.22 31.145h9.217L38.212 81.185c-6.162-7.267-12.14-14.912-15.183-23.753-3.041-8.842-3.103-18.59.005-27.41 2.843-8.02 8.072-15.106 15.067-20.418 7.017-5.286 15.5-8.57 24.441-9.463z"/><path fill="url(#e)" d="M62.791.17c11.046-2.084 22.882-.208 32.591 5.165S112.58 19.53 116 29.621a41.24 41.24 0 0 1 1.085 22.637c-1.782 7.499-5.634 14.424-11.167 20.08l-16.056 31.144H70.686L89.79 71.633c4.11-6.852 7.962-14.017 9.209-21.796s-.052-15.856-3.402-23.065C89.618 13.908 77.206 3.843 62.793.171z"/></g><path fill="#e5a50a" d="M53.494 113.899v8.904a4.45 4.45 0 0 0 2.754 4.128 4.5 4.5 0 0 0 1.71.337h12.084c2.474 0 3.945-2.046 4.464-4.465v-8.904z"/><path fill="#e5a50a" d="M53.494 111.989v8.905a4.46 4.46 0 0 0 1.304 3.159c.415.415.908.744 1.45.967a4.4 4.4 0 0 0 1.71.337h12.084c2.474 0 3.945-2.045 4.464-4.463v-8.904z"/><path fill="#f3af0b" d="M66.866 111.989v13.368h3.176c2.474 0 3.945-2.045 4.464-4.463v-8.904z"/><defs><radialGradient id="b" cx="0" cy="0" r="1" gradientTransform="matrix(.22848 73.2059 -68.8401 .19043 63.505 34.302)" gradientUnits="userSpaceOnUse"><stop stop-color="#fff"/><stop offset=".519" stop-color="#fff"/><stop offset=".734" stop-color="#cfcfcf"/><stop offset="1" stop-color="#dcdcdc"/></radialGradient><radialGradient id="c" cx="0" cy="0" r="1" gradientTransform="matrix(77.4763 0 0 77.0489 60.79 28.526)" gradientUnits="userSpaceOnUse"><stop stop-color="#ed686f"/><stop offset=".865" stop-color="#a51d2d"/><stop offset="1" stop-color="#e01b24"/></radialGradient><radialGradient id="d" cx="0" cy="0" r="1" gradientTransform="matrix(18.1818 84.0491 -53.6353 10.2548 39.009 18.154)" gradientUnits="userSpaceOnUse"><stop stop-color="#ed686f"/><stop offset=".911" stop-color="#a51d2d"/><stop offset="1" stop-color="#e01b24"/></radialGradient><radialGradient id="e" cx="0" cy="0" r="1" gradientTransform="matrix(-18.1818 84.0491 53.6353 10.2548 87.786 17.916)" gradientUnits="userSpaceOnUse"><stop stop-color="#ed686f"/><stop offset=".911" stop-color="#a51d2d"/><stop offset="1" stop-color="#e01b24"/></radialGradient></defs></svg>
